svgs/sharp-thin/window-frame-open.svg

<svg xmlns="http://www.w3.org/2000/svg" viewBox="0 0 512 512"><!--! Font Awesome Pro 6.6.0 by @fontawesome - https://fontawesome.com License - https://fontawesome.com/license (Commercial License) Copyright 2024 Fonticons, Inc. --><path d="M264 16l200 0 0 256-200 0 0-256zM480 288l0-16 0-256 0-16L464 0 48 0 32 0l0 16 0 256 0 16 16 0 416 0 16 0zM48 272L48 16l200 0 0 256L48 272zM8 496l-8 0 0 16 8 0 32 0 432 0 32 0 8 0 0-16-8 0-24 0 0-176-16 0 0 176L48 496l0-176-16 0 0 176L8 496z"/></svg>

<svg xmlns="http://www.w3.org/2000/svg" viewBox="0 0 512 512"><!--! Font Awesome Pro 6.5.2 by @fontawesome - https://fontawesome.com License - https://fontawesome.com/license (Commercial License) Copyright 2024 Fonticons, Inc. --><path d="M264 16H464V272H264V16zM480 288V272 16 0H464 48 32V16 272v16H48 464h16zM48 272V16H248V272H48zM8 496H0v16H8 40 472h32 8V496h-8H480V320H464V496H48V320H32V496H8z"/></svg>
